symbols/web/healing/materialsymbolsoutlined/healing_wght700fill1_40px.svg

<svg xmlns="http://www.w3.org/2000/svg" height="40" width="40"><path d="m7.875 36.333-4.208-4.208Q2.333 30.833 2.333 29t1.334-3.125L26.042 3.5q1.291-1.292 3.104-1.292 1.812 0 3.146 1.292L36.5 7.708q1.292 1.334 1.292 3.146 0 1.813-1.292 3.104L14.125 36.333Q12.833 37.667 11 37.667t-3.125-1.334Zm13.167-4.916 10.5-10.5 4.958 4.958q1.292 1.292 1.292 3.125T36.5 32.125L32.125 36.5q-1.25 1.25-3.042 1.188-1.791-.063-3.041-1.355Zm-.959-5.584q.792 0 1.355-.541.562-.542.562-1.334 0-.833-.542-1.375-.541-.541-1.375-.541-.791 0-1.354.541-.562.542-.562 1.375 0 .792.541 1.334.542.541 1.375.541Zm-4.041-4q.833 0 1.375-.541.541-.542.541-1.375 0-.792-.541-1.355Q16.875 18 16.042 18q-.792 0-1.334.542-.541.541-.541 1.375 0 .791.541 1.354.542.562 1.334.562Zm8.041 0q.792 0 1.334-.541.541-.542.541-1.375 0-.792-.541-1.355Q24.875 18 24.083 18q-.791 0-1.354.542-.562.541-.562 1.375 0 .791.541 1.354.542.562 1.375.562ZM8.625 19.042l-5.042-5.125q-1.291-1.25-1.312-3.021Q2.25 9.125 3.5 7.875L7.875 3.5Q9.167 2.208 11 2.208T14.125 3.5l4.958 4.958Zm11.458-1.209q.792 0 1.355-.541.562-.542.562-1.375 0-.792-.542-1.334-.541-.541-1.375-.541-.791 0-1.354.541-.562.542-.562 1.334 0 .791.541 1.354.542.562 1.375.562Z"/></svg>

<svg xmlns="http://www.w3.org/2000/svg" height="40" width="40"><path d="M7.875 36.333 3.667 32.125Q2.333 30.833 2.333 29Q2.333 27.167 3.667 25.875L26.042 3.5Q27.333 2.208 29.146 2.208Q30.958 2.208 32.292 3.5L36.5 7.708Q37.792 9.042 37.792 10.854Q37.792 12.667 36.5 13.958L14.125 36.333Q12.833 37.667 11 37.667Q9.167 37.667 7.875 36.333ZM21.042 31.417 31.542 20.917 36.5 25.875Q37.792 27.167 37.792 29Q37.792 30.833 36.5 32.125L32.125 36.5Q30.875 37.75 29.083 37.688Q27.292 37.625 26.042 36.333ZM20.083 25.833Q20.875 25.833 21.438 25.292Q22 24.75 22 23.958Q22 23.125 21.458 22.583Q20.917 22.042 20.083 22.042Q19.292 22.042 18.729 22.583Q18.167 23.125 18.167 23.958Q18.167 24.75 18.708 25.292Q19.25 25.833 20.083 25.833ZM16.042 21.833Q16.875 21.833 17.417 21.292Q17.958 20.75 17.958 19.917Q17.958 19.125 17.417 18.562Q16.875 18 16.042 18Q15.25 18 14.708 18.542Q14.167 19.083 14.167 19.917Q14.167 20.708 14.708 21.271Q15.25 21.833 16.042 21.833ZM24.083 21.833Q24.875 21.833 25.417 21.292Q25.958 20.75 25.958 19.917Q25.958 19.125 25.417 18.562Q24.875 18 24.083 18Q23.292 18 22.729 18.542Q22.167 19.083 22.167 19.917Q22.167 20.708 22.708 21.271Q23.25 21.833 24.083 21.833ZM8.625 19.042 3.583 13.917Q2.292 12.667 2.271 10.896Q2.25 9.125 3.5 7.875L7.875 3.5Q9.167 2.208 11 2.208Q12.833 2.208 14.125 3.5L19.083 8.458ZM20.083 17.833Q20.875 17.833 21.438 17.292Q22 16.75 22 15.917Q22 15.125 21.458 14.583Q20.917 14.042 20.083 14.042Q19.292 14.042 18.729 14.583Q18.167 15.125 18.167 15.917Q18.167 16.708 18.708 17.271Q19.25 17.833 20.083 17.833Z"/></svg>
